!!!COM: Georges Bizet
!!!CNT: Francais
!!!TXO: Francais
!!!OTL: Apre\s L'hiver
!!!LYR: Victor Hugo
!!!ENC: Jacob Pegg
!!!YOR: Romantic French Song 1830-1870 -David Tunley, ed.,
!!!YOR: New York: Garland Publishing, Inc., 1995, Vol. 4
!!!ODT: 1867/
!!NB: Vocal melody and text only encoded.
!!NB: First instance of melodic material only encoded.
**kern	**silbe
*clef G2	*
*k[b-e-a-d-]	*
*M2/4	*
!!created: 5/5/03 13:00
!!proofed and posted: 5/5/03 14:34
!!edit time: 47 min.
=11	=11
{4.e-	{Tout
8cc	re-
=12	=12
(4b-	-vit,
4a-)}	|}
=13	=13
8r	.
{8e-	{ma
8e-	bien
8a-	ai-
=14	=14
4a-	me/-
8g}	-e!}
8r	.
=15	=15
{8e-	{Tout
8g	re-
4b-	vit!
=16	=16
8g	Le
8b-	ciel
(8dd-	gris
8cc)	|
=17	=17
(8a-	perd
8g)	|
8f	sa
8b-	pa^-
=18	=18
[2b-	-leur!
=19	=19
2b-_	|
=20	=20
4b-]}	|}
4r	.
=21	=21
2r	.
=22	=22
{4.e-	{Quand
8cc	la
=23	=23
(4b-	ter-
[4a-)	|
=24	=24
8a-]	-re
8e-	est
8e-	em-
8a-	-bau-
=25	=25
4a-	-me/-
4g}	-e,}
=26	=26
8r	.
{8g	{Le
[4b-	coeur
=27	=27
8b-]	|
8g	de
[4cc	l'hom-
=28	=28
(8cc]	|
8f)	-me
8a-	est
8dn	meil-
=29	=29
4e-}	-leur.}
4r	.
=30	=30
{[4f	{Viens!
8f]}	|}
8r	.
=31	=31
{4.ff	{Viens!
8ee-	u-
=32	=32
8dd-	-ne
8cc	flu^te
8b-	in-
8an	-vi-
=33	=33
(8b-	-si-
8cc)	|
8dd-	-ble,
8f	Sou-
=34	=34
4a-	-pi-
16g}	-re,}
16r	.
{8cc	{sou-
=35	=35
4b-	-pi-
8a-	-re
8ee-	dans
=36	=36
(8ddn	les
8cc)	|
(8b-	ver-
8a-)	|
=37	=37
2b-}	-gers,}
=38	=38
{4.e-	{La
8cc	chan-
=39	=39
(4b-	-son
[4a-)	|
=40	=40
8a-]	|
8ee-	la
8dd-	plus
8cc	pai-
=41	=41
8ff	-si-
8ee-	-ble,
8dd-	la
8cc	chan-
=42	=42
8b-	-son
8a-	la
8g	plus
8f	pai-
=43	=43
8e-}	-sible}
{8f	{Est
8g	la
8a-	chan-
=44	=44
(8b-	-son
8cc)	|
8dd-	des
8g	ber-
=45	=45
[4a-	-gers.
8a-]}	|}
8r	.
!!mm. 47-98 repeat
=99	=99
4r	.
{(8e-	{Clar-
8cc)	|
=100	=100
(4b-	-te/s
4a-)	|
=101	=101
8e-	et
8e-	par-
8e-	-fums
8a-	nous~
=102	=102
4a-	~me^-
8g}	-mes,}
8r	.
=103	=103
{8e-	{Nous
8g	bai-
4b-	-gnons,
=104	=104
8g	nous
8b-	bai-
8dd-	-gnons
8cc	nos
=105	=105
(8a-	coeurs
8g)	|
(8f	heu-
8b-)	|
=106	=106
[2b-	-reux,
=107	=107
2b-_	|
=108	=108
4b-]}	|}
4r	.
!!no new melodic material in mm. 109-134
=135	=135
{[2e-	{Viens!
=136	=136
4e-]}	|}
4r	.
=137	=137
{[2ee-	{viens!
=138	=138
(8ee-]	|
8ddn)	|
8ee-	ai-
8ff	-mons~
=139	=139
(4ff	~nous
[4ee-)	|
=140	=140
4ee-]	|
4g	tou-
=141	=141
[2a-	-jours!
=142	=142
2a-_	|
=143	=143
4a-]}	|}
4r	.
*-	*-
